X:9247
T:Langdans de Vastra-Torsas
M:3/4
L:1/4
C:Gout d'hier
K:G
E|A>B c/B/|~AGA|e>f g/f/|e~de|\
c2~c|BA~d|BE~G|A2:|\
|:E|Aee|ed~B/d/|c>B A/c/|~B2 c/d/|
c~B~A|AG~A|AB~A|A2G|\
A>B c/B/|~AGA|e>f g/f/|e~de|\
c2~c|BA~d|BE~G|A2:|


